.local/share/icons/Gruvbox-Plus-Dark/actions/16/office-report.svg

<svg width="16" height="16" version="1.1" xmlns="http://www.w3.org/2000/svg">
  <defs>
    <style id="current-color-scheme" type="text/css">.ColorScheme-Text { color:#ebdbb2; } .ColorScheme-Highlight { color:#458588; }</style>
  </defs>
  <path class="ColorScheme-Text" d="m9 1c-0.554 0-1 0.446-1 1v5c0 0.554 0.446 1 1 1h5c0.554 0 1-0.446 1-1v-5c0-0.554-0.446-1-1-1h-5zm-4.5 1a2.5 2.5 0 0 0-2.5 2.5 2.5 2.5 0 0 0 2.5 2.5 2.5 2.5 0 0 0 2.449-2h-2.949l1.635-2.725a2.5 2.5 0 0 0-1.135-0.2754zm5.5 1h3v3h-3v-3zm-8 5c-0.554 0-1 0.446-1 1v5c0 0.554 0.446 1 1 1h5c0.554 0 1-0.446 1-1v-5c0-0.554-0.446-1-1-1h-5zm11 1v5h1v-5h-1zm-10 1h3v3h-3v-3zm8 1v3h1v-3h-1zm-2 1v2h1v-2h-1z" fill="currentColor"/>
</svg>

<svg xmlns="http://www.w3.org/2000/svg" width="16" height="16" version="1.1">
 <defs>
  <style id="current-color-scheme" type="text/css">
   .ColorScheme-Text { color:#565656; } .ColorScheme-Highlight { color:#4285f4; } .ColorScheme-NeutralText { color:#ff9800; } .ColorScheme-PositiveText { color:#4caf50; } .ColorScheme-NegativeText { color:#f44336; }
  </style>
 </defs>
 <path style="fill:currentColor" class="ColorScheme-Text" d="M 9 1 C 8.446 1 8 1.446 8 2 L 8 7 C 8 7.554 8.446 8 9 8 L 14 8 C 14.554 8 15 7.554 15 7 L 15 2 C 15 1.446 14.554 1 14 1 L 9 1 z M 4.5 2 A 2.5 2.5 0 0 0 2 4.5 A 2.5 2.5 0 0 0 4.5 7 A 2.5 2.5 0 0 0 6.9492188 5 L 4 5 L 5.6347656 2.2753906 A 2.5 2.5 0 0 0 4.5 2 z M 10 3 L 13 3 L 13 6 L 10 6 L 10 3 z M 2 8 C 1.446 8 1 8.446 1 9 L 1 14 C 1 14.554 1.446 15 2 15 L 7 15 C 7.554 15 8 14.554 8 14 L 8 9 C 8 8.446 7.554 8 7 8 L 2 8 z M 13 9 L 13 14 L 14 14 L 14 9 L 13 9 z M 3 10 L 6 10 L 6 13 L 3 13 L 3 10 z M 11 11 L 11 14 L 12 14 L 12 11 L 11 11 z M 9 12 L 9 14 L 10 14 L 10 12 L 9 12 z"/>
</svg>
